icons/polygon-select-24.svg

<svg id="icons" xmlns="http://www.w3.org/2000/svg" viewBox="0 0 24 24"><defs><style>.cls-1{fill:none;}</style></defs><path d="M19,5.4209,17,6.877V5.64l2-1.456ZM16,6.368,14,7.824V9.061l2-1.456ZM7,8.10907,5,6.78546V7.98474L7,9.30835Zm3,1.98541L8,8.77087V9.97015l2,1.32355ZM22,5H21V7h1Zm0,3H21v2h1ZM21,4h1V2L20,3.456V4.69287l1-.728Zm1,7H21v2h1Zm-1,4.109,1,.72961V14H21ZM2,22H3V20H2ZM13,8.552l-2,1.456v1.237l1-.728v-.0072a.99959.99959,0,0,1,1-1ZM10,22h2V21H10ZM2,19H3V17H2Zm16.75684-1L20.94592,22.515l-2.89355,1.45557-2.26624-4.62067L13,23.16943V10.50952L23.26611,18Zm-1.59668-1h3.03808L14,12.47754v7.624l1.9541-2.67968,2.55176,5.20117,1.11035-.5586ZM4,22H6V21H4Zm3,0H9V21H7ZM2,13H3V11H2Zm0,3H3V14H2ZM4,6.1236,2,4.8V7H3V6.66113l1,.66181ZM2,10H3V8H2Z"/><rect class="cls-1" width="24" height="24"/></svg>

<svg xmlns="http://www.w3.org/2000/svg" viewBox="0 0 24 24"><path d="M19 5.42l-2 1.457V5.64l2-1.456zm-3 .948l-2 1.456v1.237l2-1.456zM7 8.109L5 6.785v1.2l2 1.323zm3 1.985L8 8.771v1.2l2 1.323zM22 5h-1v2h1zm0 3h-1v2h1zm-1-4h1V2l-2 1.456v1.237l1-.728zm1 7h-1v2h1zm-1 4.109l1 .73V14h-1zM2 22h1v-2H2zM13 8.552l-2 1.456v1.237l1-.728v-.007a1 1 0 0 1 1-1zM10 22h2v-1h-2zm-8-3h1v-2H2zm16.757-1l2.189 4.515-2.894 1.456-2.266-4.621L13 23.17V10.51L23.266 18zm-1.597-1h3.038L14 12.478v7.624l1.954-2.68 2.552 5.201 1.11-.559zM4 22h2v-1H4zm3 0h2v-1H7zm-5-9h1v-2H2zm0 3h1v-2H2zm2-9.876L2 4.8V7h1v-.339l1 .662zM2 10h1V8H2z"/><path fill="none" d="M0 0h24v24H0z"/></svg>
